src/16/panel/pcloud-pause.svg

<svg xmlns="http://www.w3.org/2000/svg" width="16" height="16"><defs><style id="current-color-scheme" type="text/css">.ColorScheme-Text{color:#bebebe}</style></defs><path class="ColorScheme-Text" d="M8 2a5 5 0 0 0-4.604 3.049A4 4 0 0 0 0 9a4 4 0 0 0 3.809 3.99V13h4.224A4.5 4.5 0 0 1 8 12.5 4.5 4.5 0 0 1 12.5 8a4.5 4.5 0 0 1 3.193 1.332 2.476 2.476 0 0 0-.87-.914A2.5 2.5 0 0 0 15 7.5a2.5 2.5 0 0 0-2.422-2.496A5 5 0 0 0 8 2zM6 5h4v3H7v3H6V5zm1 1v1h2V6H7z" fill="currentColor" opacity=".3"/><path class="ColorScheme-Text" d="M12.5 9A3.5 3.5 0 0 0 9 12.5a3.5 3.5 0 0 0 3.5 3.5 3.5 3.5 0 0 0 3.5-3.5A3.5 3.5 0 0 0 12.5 9zM11 11h1v3h-1v-3zm2 0h1v3h-1v-3z" fill="currentColor"/></svg>

<svg xmlns="http://www.w3.org/2000/svg" width="16" height="16" version="1.1">
 <defs>
  <style id="current-color-scheme" type="text/css">
   .ColorScheme-Text { color:#bebebe; } .ColorScheme-Highlight { color:#5294e2; }
  </style>
 </defs>
 <path style="fill:currentColor;opacity:0.3" class="ColorScheme-Text" d="M 8 2 A 5 5 0 0 0 3.3964844 5.0488281 A 4 4 0 0 0 0 9 A 4 4 0 0 0 3.8085938 12.990234 L 3.8085938 13 L 4 13 L 8.0332031 13 A 4.5 4.5 0 0 1 8 12.5 A 4.5 4.5 0 0 1 12.5 8 A 4.5 4.5 0 0 1 15.693359 9.3320312 A 2.4761905 2.4761905 0 0 0 14.822266 8.4179688 A 2.5 2.5 0 0 0 15 7.5 A 2.5 2.5 0 0 0 12.578125 5.0039062 A 5 5 0 0 0 8 2 z M 6 5 L 7 5 L 9 5 L 10 5 L 10 6 L 10 7 L 10 8 L 9 8 L 7 8 L 7 11 L 6 11 L 6 8 L 6 7 L 6 6 L 6 5 z M 7 6 L 7 7 L 9 7 L 9 6 L 7 6 z"/>
 <path style="fill:currentColor" class="ColorScheme-Text" d="M 12.5 9 A 3.5 3.5 0 0 0 9 12.5 A 3.5 3.5 0 0 0 12.5 16 A 3.5 3.5 0 0 0 16 12.5 A 3.5 3.5 0 0 0 12.5 9 z M 11 11 L 12 11 L 12 14 L 11 14 L 11 11 z M 13 11 L 14 11 L 14 14 L 13 14 L 13 11 z"/>
</svg>
